meat/img/title-rect.svg

<svg width="540" height="50" viewBox="0 0 540 50" fill="none" xmlns="http://www.w3.org/2000/svg">
<path d="M30 15C30 6.71573 36.7157 0 45 0L495 0C503.284 0 510 6.71573 510 15V35C510 43.2843 516.716 50 525 50H540H0H15C23.2843 50 30 43.2843 30 35V15Z" fill="#37343C"/>
</svg>

<svg width="540" height="50" fill="none" xmlns="http://www.w3.org/2000/svg"><path d="M30 15c0-8.284 6.716-15 15-15h450c8.284 0 15 6.716 15 15v20c0 8.284 6.716 15 15 15h15H0h15c8.284 0 15-6.716 15-15V15z" fill="#37343C"/></svg>
